Numix/16/emotes/face-monkey.svg

<?xml version="1.0" encoding="UTF-8" standalone="no"?>
<svg
   xmlns:dc="http://purl.org/dc/elements/1.1/"
   xmlns:cc="http://creativecommons.org/ns#"
   xmlns:rdf="http://www.w3.org/1999/02/22-rdf-syntax-ns#"
   xmlns:svg="http://www.w3.org/2000/svg"
   xmlns="http://www.w3.org/2000/svg"
   xmlns:sodipodi="http://sodipodi.sourceforge.net/DTD/sodipodi-0.dtd"
   xmlns:inkscape="http://www.inkscape.org/namespaces/inkscape"
   width="16px"
   height="16px"
   viewBox="0 0 12 12"
   version="1.1"
   id="svg2771"
   inkscape:version="0.91 r"
   sodipodi:docname="face-monkey.svg">
  <metadata
     id="metadata2798">
    <rdf:RDF>
      <cc:Work
         rdf:about="">
        <dc:format>image/svg+xml</dc:format>
        <dc:type
           rdf:resource="http://purl.org/dc/dcmitype/StillImage" />
      </cc:Work>
    </rdf:RDF>
  </metadata>
  <defs
     id="defs2796" />
  <sodipodi:namedview
     pagecolor="#ffffff"
     bordercolor="#666666"
     borderopacity="1"
     objecttolerance="10"
     gridtolerance="10"
     guidetolerance="10"
     inkscape:pageopacity="0"
     inkscape:pageshadow="2"
     inkscape:window-width="640"
     inkscape:window-height="480"
     id="namedview2794" />
  <g
     id="surface1">
    <path
       style=" stroke:none;fill-rule:nonzero;fill:rgb(100%,80%,23.921569%);fill-opacity:1;"
       d="M 11.25 6 C 11.25 8.484375 8.898438 10.5 6 10.5 C 3.101562 10.5 0.75 8.484375 0.75 6 C 0.75 3.515625 3.097656 1.5 6 1.5 C 8.902344 1.5 11.25 3.515625 11.25 6 Z M 11.25 6 "
       id="path2774" />
    <path
       style=" stroke:none;fill-rule:nonzero;fill:rgb(18.039216%,18.039216%,18.039216%);fill-opacity:1;"
       d="M 5.78125 6.839844 C 5.859375 6.878906 5.953125 6.898438 6.058594 6.886719 C 6.234375 6.867188 6.296875 6.808594 6.359375 6.742188 C 6.460938 6.625 6.496094 6.472656 6.351562 6.386719 C 6.230469 6.316406 5.976562 6.3125 5.808594 6.347656 C 5.40625 6.425781 5.539062 6.726562 5.78125 6.839844 Z M 5.78125 6.839844 "
       id="path2776" />
    <path
       style=" stroke:none;fill-rule:nonzero;fill:rgb(87.058824%,43.921569%,20.784314%);fill-opacity:1;"
       d="M 7.765625 7.621094 C 7.164062 7.480469 5.882812 7.472656 5.042969 7.539062 C 3.015625 7.699219 3.691406 8.300781 4.914062 8.53125 C 5.28125 8.597656 5.761719 8.640625 6.300781 8.617188 C 7.1875 8.582031 7.5 8.464844 7.8125 8.324219 C 8.3125 8.101562 8.492188 7.789062 7.765625 7.621094 Z M 7.765625 7.621094 "
       id="path2778" />
    <path
       style=" stroke:none;fill-rule:nonzero;fill:rgb(52.156863%,36.078431%,31.764706%);fill-opacity:1;"
       d="M 6.070312 1.5 C 6.011719 1.5 5.949219 1.5 5.890625 1.503906 C 5.785156 1.503906 5.679688 1.507812 5.578125 1.515625 C 5.511719 1.519531 5.449219 1.523438 5.382812 1.53125 C 5.289062 1.542969 5.195312 1.554688 5.101562 1.566406 C 5.035156 1.578125 4.964844 1.585938 4.902344 1.597656 C 4.859375 1.605469 4.820312 1.617188 4.78125 1.625 C 4.554688 1.671875 4.335938 1.726562 4.125 1.796875 C 4.113281 1.800781 4.105469 1.804688 4.097656 1.808594 C 3.972656 1.847656 3.847656 1.894531 3.726562 1.945312 C 2.496094 2.460938 1.515625 3.382812 1.050781 4.550781 C 1.046875 4.550781 1.039062 4.550781 1.03125 4.550781 C 0.851562 5.007812 0.75 5.492188 0.75 6 C 0.75 6.511719 0.855469 7 1.039062 7.457031 C 1.042969 7.457031 1.050781 7.460938 1.054688 7.460938 C 1.628906 8.902344 2.996094 9.960938 4.652344 10.34375 C 4.714844 10.359375 4.777344 10.375 4.84375 10.386719 C 4.914062 10.402344 4.984375 10.414062 5.058594 10.421875 C 5.15625 10.4375 5.253906 10.453125 5.355469 10.460938 C 5.410156 10.46875 5.464844 10.472656 5.519531 10.480469 C 5.675781 10.492188 5.832031 10.5 5.996094 10.5 C 5.996094 10.5 6 10.5 6.003906 10.5 C 6.167969 10.5 6.332031 10.492188 6.492188 10.480469 C 6.539062 10.476562 6.585938 10.46875 6.628906 10.464844 C 6.742188 10.453125 6.855469 10.4375 6.96875 10.421875 C 7.023438 10.410156 7.082031 10.402344 7.140625 10.390625 C 7.234375 10.375 7.324219 10.351562 7.414062 10.328125 C 7.480469 10.3125 7.546875 10.300781 7.609375 10.28125 C 7.734375 10.25 7.855469 10.210938 7.976562 10.167969 C 7.984375 10.164062 7.992188 10.164062 7.996094 10.160156 C 8.085938 10.128906 8.171875 10.09375 8.257812 10.058594 C 8.300781 10.039062 8.347656 10.023438 8.390625 10.003906 C 8.480469 9.964844 8.570312 9.921875 8.65625 9.878906 C 8.695312 9.859375 8.730469 9.839844 8.769531 9.820312 C 8.859375 9.769531 8.949219 9.722656 9.035156 9.667969 C 9.050781 9.660156 9.0625 9.652344 9.074219 9.644531 C 9.925781 9.113281 10.59375 8.359375 10.953125 7.460938 C 10.957031 7.460938 10.960938 7.457031 10.964844 7.457031 C 11.148438 7 11.253906 6.511719 11.253906 6 C 11.253906 5.492188 11.152344 5.007812 10.972656 4.550781 C 10.964844 4.550781 10.957031 4.550781 10.949219 4.550781 C 10.425781 3.21875 9.21875 2.203125 7.726562 1.75 C 7.722656 1.75 7.722656 1.75 7.722656 1.75 C 7.613281 1.714844 7.503906 1.6875 7.394531 1.660156 C 7.347656 1.652344 7.300781 1.640625 7.257812 1.632812 C 7.167969 1.613281 7.078125 1.59375 6.988281 1.578125 C 6.84375 1.554688 6.699219 1.535156 6.550781 1.523438 C 6.523438 1.519531 6.496094 1.519531 6.46875 1.519531 C 6.335938 1.507812 6.203125 1.5 6.070312 1.5 Z M 4.09375 3.675781 C 4.75 3.707031 5.339844 4.28125 6.003906 4.265625 C 6.710938 4.28125 7.335938 3.628906 8.042969 3.679688 C 8.207031 3.691406 8.386719 3.683594 8.542969 3.734375 C 8.988281 3.871094 9.304688 4.21875 9.484375 4.625 C 9.648438 5.003906 9.589844 5.382812 9.46875 5.765625 C 9.375 6.0625 9.371094 6.460938 9.414062 6.769531 C 9.457031 7.058594 9.625 7.332031 9.640625 7.621094 C 9.691406 8.421875 8.996094 8.960938 8.304688 9.257812 C 7.621094 9.558594 6.785156 9.671875 6 9.660156 C 5.21875 9.671875 4.382812 9.558594 3.699219 9.257812 C 3.007812 8.957031 2.3125 8.421875 2.367188 7.621094 C 2.382812 7.328125 2.550781 7.058594 2.589844 6.769531 C 2.636719 6.464844 2.632812 6.0625 2.539062 5.765625 C 2.414062 5.382812 2.359375 5.003906 2.523438 4.625 C 2.703125 4.21875 3.015625 3.871094 3.464844 3.734375 C 3.621094 3.683594 3.796875 3.691406 3.960938 3.679688 C 4.007812 3.671875 4.050781 3.671875 4.09375 3.675781 Z M 4.09375 3.675781 "
       id="path2780" />
    <path
       style=" stroke:none;fill-rule:nonzero;fill:rgb(39.607843%,39.607843%,39.607843%);fill-opacity:1;"
       d="M 4.921875 4.921875 C 4.921875 5.363281 4.566406 5.71875 4.125 5.71875 C 3.683594 5.71875 3.328125 5.363281 3.328125 4.921875 C 3.328125 4.480469 3.683594 4.125 4.125 4.125 C 4.566406 4.125 4.921875 4.480469 4.921875 4.921875 Z M 4.921875 4.921875 "
       id="path2782" />
    <path
       style=" stroke:none;fill-rule:nonzero;fill:rgb(39.607843%,39.607843%,39.607843%);fill-opacity:1;"
       d="M 8.671875 4.921875 C 8.671875 5.363281 8.316406 5.71875 7.875 5.71875 C 7.433594 5.71875 7.078125 5.363281 7.078125 4.921875 C 7.078125 4.480469 7.433594 4.125 7.875 4.125 C 8.316406 4.125 8.671875 4.480469 8.671875 4.921875 Z M 8.671875 4.921875 "
       id="path2784" />
    <path
       style=" stroke:none;fill-rule:nonzero;fill:rgb(52.156863%,36.078431%,31.764706%);fill-opacity:1;"
       d="M 2.25 6 C 2.25 6.621094 1.746094 7.125 1.125 7.125 C 0.503906 7.125 0 6.621094 0 6 C 0 5.378906 0.503906 4.875 1.125 4.875 C 1.746094 4.875 2.25 5.378906 2.25 6 Z M 2.25 6 "
       id="path2786" />
    <path
       style=" stroke:none;fill-rule:nonzero;fill:rgb(100%,80%,23.921569%);fill-opacity:1;"
       d="M 0.75 6.625 C 0.617188 6.625 0.492188 6.507812 0.425781 6.3125 C 0.359375 6.121094 0.359375 5.882812 0.425781 5.6875 C 0.492188 5.496094 0.617188 5.375 0.75 5.375 Z M 0.75 6.625 "
       id="path2788" />
    <path
       style=" stroke:none;fill-rule:nonzero;fill:rgb(52.156863%,36.078431%,31.764706%);fill-opacity:1;"
       d="M 12 6 C 12 6.621094 11.496094 7.125 10.875 7.125 C 10.253906 7.125 9.75 6.621094 9.75 6 C 9.75 5.378906 10.253906 4.875 10.875 4.875 C 11.496094 4.875 12 5.378906 12 6 Z M 12 6 "
       id="path2790" />
    <path
       style=" stroke:none;fill-rule:nonzero;fill:rgb(100%,80%,23.921569%);fill-opacity:1;"
       d="M 11.25 6.625 C 11.382812 6.625 11.507812 6.507812 11.574219 6.3125 C 11.640625 6.121094 11.640625 5.882812 11.574219 5.6875 C 11.507812 5.496094 11.382812 5.375 11.25 5.375 Z M 11.25 6.625 "
       id="path2792" />
  </g>
</svg>

<svg xmlns="http://www.w3.org/2000/svg" width="16" height="16" viewBox="0 0 12 12">
 <g>
  <path d="m 11.25 6 c 0 2.484 -2.352 4.5 -5.25 4.5 c -2.898 0 -5.25 -2.02 -5.25 -4.5 c 0 -2.484 2.348 -4.5 5.25 -4.5 c 2.902 0 5.25 2.02 5.25 4.5 m 0 0" style="fill:#ffcc3d;fill-opacity:1;stroke:none;fill-rule:nonzero"/>
  <path d="m 5.781 6.84 c 0.078 0.039 0.172 0.059 0.277 0.047 c 0.176 -0.02 0.238 -0.078 0.301 -0.145 c 0.102 -0.117 0.137 -0.27 -0.008 -0.355 c -0.121 -0.07 -0.375 -0.074 -0.543 -0.039 c -0.402 0.078 -0.27 0.379 -0.027 0.492 m 0 0" style="fill:#2e2e2e;fill-opacity:1;stroke:none;fill-rule:nonzero"/>
  <path d="m 7.766 7.621 c -0.602 -0.141 -1.883 -0.148 -2.723 -0.082 c -2.027 0.16 -1.352 0.762 -0.129 0.992 c 0.367 0.066 0.848 0.109 1.387 0.086 c 0.887 -0.035 1.199 -0.152 1.512 -0.293 c 0.5 -0.223 0.68 -0.535 -0.047 -0.703 m 0 0" style="fill:#de7035;fill-opacity:1;stroke:none;fill-rule:nonzero"/>
  <path d="m 6.07 1.5 c -0.059 0 -0.121 0 -0.18 0.004 c -0.105 0 -0.211 0.004 -0.313 0.012 c -0.066 0.004 -0.129 0.008 -0.195 0.016 c -0.094 0.012 -0.188 0.023 -0.281 0.035 c -0.066 0.012 -0.137 0.02 -0.199 0.031 c -0.043 0.008 -0.082 0.02 -0.121 0.027 c -0.227 0.047 -0.445 0.102 -0.656 0.172 c -0.012 0.004 -0.02 0.008 -0.027 0.012 c -0.125 0.039 -0.25 0.086 -0.371 0.137 c -1.23 0.516 -2.211 1.438 -2.676 2.605 c -0.004 0 -0.012 0 -0.02 0 c -0.18 0.457 -0.281 0.941 -0.281 1.449 c 0 0.512 0.105 1 0.289 1.457 c 0.004 0 0.012 0.004 0.016 0.004 c 0.574 1.441 1.941 2.5 3.598 2.883 c 0.063 0.016 0.125 0.031 0.191 0.043 c 0.07 0.016 0.141 0.027 0.215 0.035 c 0.098 0.016 0.195 0.031 0.297 0.039 c 0.055 0.008 0.109 0.012 0.164 0.02 c 0.156 0.012 0.313 0.02 0.477 0.02 c 0 0 0.004 0 0.008 0 c 0.164 0 0.328 -0.008 0.488 -0.02 c 0.047 -0.004 0.094 -0.012 0.137 -0.016 c 0.113 -0.012 0.227 -0.027 0.34 -0.043 c 0.055 -0.012 0.113 -0.02 0.172 -0.031 c 0.094 -0.016 0.184 -0.039 0.273 -0.063 c 0.066 -0.016 0.133 -0.027 0.195 -0.047 c 0.125 -0.031 0.246 -0.07 0.367 -0.113 c 0.008 -0.004 0.016 -0.004 0.02 -0.008 c 0.09 -0.031 0.176 -0.066 0.262 -0.102 c 0.043 -0.02 0.09 -0.035 0.133 -0.055 c 0.09 -0.039 0.18 -0.082 0.266 -0.125 c 0.039 -0.02 0.074 -0.039 0.113 -0.059 c 0.09 -0.051 0.18 -0.098 0.266 -0.152 c 0.016 -0.008 0.027 -0.016 0.039 -0.023 c 0.852 -0.531 1.52 -1.285 1.879 -2.184 c 0.004 0 0.008 -0.004 0.012 -0.004 c 0.184 -0.457 0.289 -0.945 0.289 -1.457 c 0 -0.508 -0.102 -0.992 -0.281 -1.449 c -0.008 0 -0.016 0 -0.023 0 c -0.523 -1.332 -1.73 -2.348 -3.223 -2.801 c -0.004 0 -0.004 0 -0.004 0 c -0.109 -0.035 -0.219 -0.063 -0.328 -0.09 c -0.047 -0.008 -0.094 -0.02 -0.137 -0.027 c -0.09 -0.02 -0.18 -0.039 -0.27 -0.055 c -0.145 -0.023 -0.289 -0.043 -0.438 -0.055 c -0.027 -0.004 -0.055 -0.004 -0.082 -0.004 c -0.133 -0.012 -0.266 -0.02 -0.398 -0.02 m -1.977 2.176 c 0.656 0.031 1.246 0.605 1.91 0.59 c 0.707 0.016 1.332 -0.637 2.039 -0.586 c 0.164 0.012 0.344 0.004 0.5 0.055 c 0.445 0.137 0.762 0.484 0.941 0.891 c 0.164 0.379 0.105 0.758 -0.016 1.141 c -0.094 0.297 -0.098 0.695 -0.055 1 c 0.043 0.289 0.211 0.563 0.227 0.852 c 0.051 0.801 -0.645 1.34 -1.336 1.637 c -0.684 0.301 -1.52 0.414 -2.305 0.402 c -0.781 0.012 -1.617 -0.102 -2.301 -0.402 c -0.691 -0.301 -1.387 -0.836 -1.332 -1.637 c 0.016 -0.293 0.184 -0.563 0.223 -0.852 c 0.047 -0.305 0.043 -0.707 -0.051 -1 c -0.125 -0.383 -0.18 -0.762 -0.016 -1.141 c 0.18 -0.406 0.492 -0.754 0.941 -0.891 c 0.156 -0.051 0.332 -0.043 0.496 -0.055 c 0.047 -0.008 0.09 -0.008 0.133 -0.004 m 0 0" style="fill:#855b51;fill-opacity:1;stroke:none;fill-rule:nonzero"/>
  <path d="m 4.922 4.922 c 0 0.441 -0.355 0.797 -0.797 0.797 c -0.441 0 -0.797 -0.355 -0.797 -0.797 c 0 -0.441 0.355 -0.797 0.797 -0.797 c 0.441 0 0.797 0.355 0.797 0.797 m 0 0" style="fill:#646464;fill-opacity:1;stroke:none;fill-rule:nonzero"/>
  <path d="m 8.672 4.922 c 0 0.441 -0.355 0.797 -0.797 0.797 c -0.441 0 -0.797 -0.355 -0.797 -0.797 c 0 -0.441 0.355 -0.797 0.797 -0.797 c 0.441 0 0.797 0.355 0.797 0.797 m 0 0" style="fill:#646464;fill-opacity:1;stroke:none;fill-rule:nonzero"/>
  <path d="m 2.25 6 c 0 0.621 -0.504 1.125 -1.125 1.125 c -0.621 0 -1.125 -0.504 -1.125 -1.125 c 0 -0.621 0.504 -1.125 1.125 -1.125 c 0.621 0 1.125 0.504 1.125 1.125 m 0 0" style="fill:#855b51;fill-opacity:1;stroke:none;fill-rule:nonzero"/>
  <path d="m 0.75 6.625 c -0.133 0 -0.258 -0.117 -0.324 -0.313 c -0.066 -0.191 -0.066 -0.43 0 -0.625 c 0.066 -0.191 0.191 -0.313 0.324 -0.313 m 0 1.25" style="fill:#ffcc3d;fill-opacity:1;stroke:none;fill-rule:nonzero"/>
  <path d="m 12 6 c 0 0.621 -0.504 1.125 -1.125 1.125 c -0.621 0 -1.125 -0.504 -1.125 -1.125 c 0 -0.621 0.504 -1.125 1.125 -1.125 c 0.621 0 1.125 0.504 1.125 1.125 m 0 0" style="fill:#855b51;fill-opacity:1;stroke:none;fill-rule:nonzero"/>
  <path d="m 11.25 6.625 c 0.133 0 0.258 -0.117 0.324 -0.313 c 0.066 -0.191 0.066 -0.43 0 -0.625 c -0.066 -0.191 -0.191 -0.313 -0.324 -0.313 m 0 1.25" style="fill:#ffcc3d;fill-opacity:1;stroke:none;fill-rule:nonzero"/>
 </g>
</svg>
